masha/img/hero_bg_set.svg

<svg width="1249" height="1000" viewBox="0 0 1249 1000" fill="none" xmlns="http://www.w3.org/2000/svg">
<g filter="url(#filter0_f)">
<path d="M1066.49 138.453L1093.53 135.587L1096.39 162.624L1069.36 165.489L1066.49 138.453Z" stroke="white" stroke-width="2"/>
</g>
<path d="M386.266 164.736L417.764 133.239L449.261 164.736L417.764 196.233L386.266 164.736Z" stroke="white" stroke-width="2"/>
<g filter="url(#filter1_f)">
<path d="M503.447 132.374L515.577 120.243L527.708 132.374L515.577 144.505L503.447 132.374Z" stroke="white" stroke-width="2"/>
</g>
<g filter="url(#filter2_f)">
<path d="M140.451 304.097H167.639V331.285H140.451V304.097Z" stroke="white" stroke-width="2"/>
</g>
<g filter="url(#filter3_f)">
<path d="M338.819 481.319H366.007V508.507H338.819V481.319Z" stroke="white" stroke-width="2"/>
</g>
<g filter="url(#filter4_f)">
<path d="M896.127 119.119L947.722 83.9686L982.872 135.564L931.277 170.713L896.127 119.119Z" stroke="white" stroke-width="2"/>
</g>
<g filter="url(#filter5_f)">
<path d="M1051.55 438.326L1074.59 415.281L1097.64 438.326L1074.59 461.371L1051.55 438.326Z" stroke="white" stroke-width="2"/>
</g>
<path d="M927.676 487.708L1001.04 525.122L963.628 598.486L890.264 561.073L927.676 487.708Z" stroke="white" stroke-width="2"/>
<path d="M339.978 -54.2708C537.889 -252.177 858.759 -252.177 1056.67 -54.2708C1254.57 143.636 1254.57 464.507 1056.67 662.413C858.759 860.319 537.889 860.319 339.978 662.413C142.073 464.507 142.073 143.636 339.978 -54.2708Z" stroke="white"/>
<path opacity="0.2" d="M637.379 146.007C654.897 146.007 669.098 132.257 669.098 115.295C669.098 98.3335 654.897 84.5833 637.379 84.5833C619.861 84.5833 605.66 98.3335 605.66 115.295C605.66 132.257 619.861 146.007 637.379 146.007Z" fill="url(#paint0_linear)"/>
<path opacity="0.2" d="M708.872 95.6597C718.048 95.6597 725.486 88.2211 725.486 79.0452C725.486 69.8692 718.048 62.4306 708.872 62.4306C699.695 62.4306 692.257 69.8692 692.257 79.0452C692.257 88.2211 699.695 95.6597 708.872 95.6597Z" fill="url(#paint1_linear)"/>
<path opacity="0.2" d="M1141.86 308.424C1165.49 308.424 1184.65 289.715 1184.65 266.636C1184.65 243.557 1165.49 224.848 1141.86 224.848C1118.22 224.848 1099.06 243.557 1099.06 266.636C1099.06 289.715 1118.22 308.424 1141.86 308.424Z" fill="url(#paint2_linear)"/>
<path d="M331.064 621.285L386.146 658.84L348.592 713.924L293.507 676.368L331.064 621.285Z" fill="#FFDC4E" stroke="white" stroke-width="2"/>
<path d="M336.506 639.41L370.035 662.27L347.175 695.799L313.646 672.939L336.506 639.41Z" fill="#FFDC4E" stroke="white" stroke-width="2"/>
<g filter="url(#filter6_f)">
<path d="M1132.68 505.793L1173.27 465.208L1213.85 505.793L1173.27 546.378L1132.68 505.793Z" fill="#FFDC4E"/>
<path d="M1134.11 505.793L1173.27 466.632L1212.43 505.793L1173.27 544.954L1134.11 505.793Z" stroke="white" stroke-width="2"/>
</g>
<path fill-rule="evenodd" clip-rule="evenodd" d="M494.602 781.3C494.602 785.75 490.212 789.36 484.792 789.36C479.372 789.36 475.002 785.72 475.002 781.3C475.002 776.88 479.402 773.23 484.822 773.23C490.242 773.23 494.602 776.84 494.602 781.3Z" fill="white"/>
<path d="M525.482 756.18H490.802V759.68H525.482V756.18Z" fill="white"/>
<path d="M494.602 746H490.192V781.9H494.602V746Z" fill="white"/>
<path d="M525.632 746H521.222V781.9H525.632V746Z" fill="white"/>
<path d="M525.642 746.02H491.252V749.96H525.642V746.02Z" fill="url(#paint3_linear)"/>
<path fill-rule="evenodd" clip-rule="evenodd" d="M525.792 780.99C525.792 785.44 521.392 789.05 515.972 789.05C510.552 789.05 506.162 785.44 506.162 780.99C506.162 776.54 510.552 772.93 515.972 772.93C521.392 772.93 525.792 776.54 525.792 780.99Z" fill="url(#paint4_linear)"/>
<path d="M249.999 131.129C250.056 126.499 248.248 122.285 245.038 119.57C240.833 116.012 234.484 115.124 228.409 116.72C227.097 111.786 225.739 106.835 224.403 101.985C225.489 100.804 226.544 99.6848 227.562 98.605C234.798 90.931 240.026 85.386 238.815 75.6503C237.77 67.2522 234.201 64.3653 231.39 63.4221C228.687 62.5146 225.636 63.0857 223.022 64.989C217.083 69.3138 212.623 81.0113 216.869 96.4732C217.263 97.9097 217.663 99.3628 218.067 100.829C215.57 103.625 212.882 106.836 210.171 110.586C201.945 121.963 202.27 130.331 203.99 135.348C205.732 140.427 209.71 144.58 214.904 146.741C220.058 148.885 225.176 149.737 229.966 149.332C230.814 154.216 231.375 158.675 231.528 162.472C229.954 161.833 228.137 161.466 226.202 161.466C220.224 161.466 215.36 164.95 215.36 169.233C215.36 173.516 220.224 177 226.202 177C232.035 177 236.307 173.707 236.925 170.528C237.956 165.23 237.309 157.379 235.699 148.192C238.778 147.202 241.641 145.622 244.195 143.461C247.824 140.392 249.939 135.897 249.999 131.129ZM226.846 68.7464C227.372 68.3632 228.089 67.9571 228.763 67.9571C228.922 67.9571 229.079 67.9797 229.23 68.0303C230.551 68.4737 232.328 70.871 232.987 76.1691C233.947 83.8833 229.819 88.2608 222.981 95.5132C222.889 95.6111 222.796 95.7092 222.703 95.8084C222.661 95.6559 222.619 95.5037 222.578 95.3518C218.661 81.0857 223.117 71.4618 226.846 68.7464ZM217.49 142.291C213.827 140.767 210.884 137.655 209.619 133.966C207.623 128.147 209.543 120.957 215.171 113.173C216.749 110.991 218.303 109.015 219.819 107.197C220.868 111.026 221.934 114.948 222.972 118.882C221.594 119.634 220.276 120.529 219.053 121.564C217.908 122.532 217.908 124.102 219.053 125.07C220.197 126.038 222.052 126.038 223.197 125.07C223.57 124.754 223.956 124.455 224.35 124.173C226.141 131.167 227.79 138.085 229.058 144.465C225.459 144.711 221.57 143.989 217.49 142.291ZM226.203 172.042C223.549 172.042 221.221 170.729 221.221 169.233C221.221 167.736 223.549 166.424 226.203 166.424C228.856 166.424 231.184 167.736 231.184 169.233C231.184 170.73 228.856 172.042 226.203 172.042ZM240.052 139.956C238.407 141.347 236.636 142.421 234.756 143.176C233.396 136.388 231.621 129.042 229.681 121.562C233.866 120.318 238.158 120.76 240.894 123.075C245.106 126.638 245.554 135.301 240.052 139.956Z" fill="white" fill-opacity="0.6"/>
<g filter="url(#filter7_f)">
<path d="M41.8652 215.828H100.309V274.272H41.8652V215.828Z" stroke="white" stroke-width="2"/>
</g>
<g filter="url(#filter8_f)">
<path d="M186.327 -62.5859C428.215 -304.471 820.389 -304.471 1062.27 -62.5859C1304.16 179.299 1304.16 571.473 1062.27 813.357C820.389 1055.24 428.215 1055.24 186.327 813.357C-55.5561 571.473 -55.5561 179.299 186.327 -62.5859Z" stroke="white"/>
</g>
<path d="M1100.61 787.866C1098.95 783.972 1093.89 781.519 1090.3 780.676C1086.36 779.758 1082.25 779.981 1078.4 778.344C1075.32 777.034 1073.18 774.151 1071.55 770.591L1069.75 770.375L1071.03 817.167C1069.93 815.903 1068.5 814.977 1066.9 814.501C1059.92 812.008 1053.83 813.229 1051.25 815.852C1046.29 820.851 1050.72 828.592 1056.65 830.601C1062.94 832.734 1072.03 832.108 1072.88 824.927C1072.92 824.536 1072.95 824.172 1072.97 823.784L1072.22 797.042C1073.38 797.629 1074.65 797.955 1075.95 797.995C1078.08 798.343 1080.26 798.33 1082.38 797.956C1084.27 797.549 1086.11 796.97 1087.89 796.224C1089.35 795.578 1090.98 795.371 1092.56 795.628C1094.14 795.886 1095.61 796.596 1096.79 797.674C1097.57 798.157 1098.15 798.903 1098.43 799.777C1098.77 800.924 1098.89 802.144 1098.33 802.69C1100.37 801.447 1098.8 797.83 1097.44 796.508C1095.32 794.51 1092.58 793.299 1089.68 793.078C1087.57 792.974 1085.46 793.025 1083.35 793.229C1081.8 793.462 1080.22 793.55 1078.65 793.491C1077.09 793.541 1075.55 793.092 1074.26 792.211C1073.42 791.559 1072.69 790.786 1072.08 789.918L1071.94 784.726C1072.45 785.923 1073.34 786.921 1074.47 787.566C1076.06 788.257 1077.83 788.422 1079.53 788.038C1082.48 787.793 1085.41 787.375 1088.31 786.785C1091.09 786.322 1097.06 786.271 1098.86 789.963C1099.76 791.833 1098.55 793.135 1098.15 794.611C1098.76 794.337 1099.31 793.943 1099.77 793.453C1100.22 792.962 1100.58 792.386 1100.81 791.757C1101.04 791.128 1101.14 790.46 1101.1 789.792C1101.07 789.124 1100.9 788.469 1100.61 787.866V787.866Z" fill="white" fill-opacity="0.6"/>
<path d="M55.2144 674.001C48.5226 673.536 42.9288 675.866 40.7522 678.581C36.5811 683.709 41.3573 689.034 47.0445 689.373C52.7317 689.713 61.5264 687.188 61.6311 681.157C61.654 680.848 61.649 680.537 61.6162 680.229L56.4793 643.186C60.4527 642.821 64.3858 642.104 68.2319 641.041C75.3675 639.877 82.3349 639.753 89.4398 638.983L93.6236 668.519C92.4297 667.701 91.0156 667.265 89.5684 667.268C82.8767 666.803 77.3058 669.143 75.1062 671.848C70.9448 676.953 75.7113 682.3 81.3985 682.64C87.0857 682.979 95.8804 680.454 96.0179 674.411L95.9799 673.473L91.1731 638.603C91.9654 635.686 92.0789 632.626 91.5047 629.658C86.3816 629.623 81.267 630.08 76.231 631.021C74.1595 631.367 53.227 634.572 53.227 634.572C53.435 637.34 53.8028 640.094 54.3285 642.82C54.4928 642.902 54.6619 642.973 54.8349 643.034L59.3228 675.383C58.1235 674.519 56.6917 674.038 55.2144 674.001V674.001Z" fill="white" fill-opacity="0.7"/>
<defs>
<filter id="filter0_f" x="1057.39" y="126.487" width="48.1019" height="48.1019" filterUnits="userSpaceOnUse" color-interpolation-filters="sRGB">
<feFlood flood-opacity="0" result="BackgroundImageFix"/>
<feBlend mode="normal" in="SourceGraphic" in2="BackgroundImageFix" result="shape"/>
<feGaussianBlur stdDeviation="4" result="effect1_foregroundBlur"/>
</filter>
<filter id="filter1_f" x="498.032" y="114.829" width="35.0898" height="35.0897" filterUnits="userSpaceOnUse" color-interpolation-filters="sRGB">
<feFlood flood-opacity="0" result="BackgroundImageFix"/>
<feBlend mode="normal" in="SourceGraphic" in2="BackgroundImageFix" result="shape"/>
<feGaussianBlur stdDeviation="2" result="effect1_foregroundBlur"/>
</filter>
<filter id="filter2_f" x="137.451" y="301.097" width="33.1876" height="33.1875" filterUnits="userSpaceOnUse" color-interpolation-filters="sRGB">
<feFlood flood-opacity="0" result="BackgroundImageFix"/>
<feBlend mode="normal" in="SourceGraphic" in2="BackgroundImageFix" result="shape"/>
<feGaussianBlur stdDeviation="1" result="effect1_foregroundBlur"/>
</filter>
<filter id="filter3_f" x="331.819" y="474.319" width="41.1875" height="41.1875" filterUnits="userSpaceOnUse" color-interpolation-filters="sRGB">
<feFlood flood-opacity="0" result="BackgroundImageFix"/>
<feBlend mode="normal" in="SourceGraphic" in2="BackgroundImageFix" result="shape"/>
<feGaussianBlur stdDeviation="3" result="effect1_foregroundBlur"/>
</filter>
<filter id="filter4_f" x="889.737" y="77.5791" width="99.5242" height="99.5237" filterUnits="userSpaceOnUse" color-interpolation-filters="sRGB">
<feFlood flood-opacity="0" result="BackgroundImageFix"/>
<feBlend mode="normal" in="SourceGraphic" in2="BackgroundImageFix" result="shape"/>
<feGaussianBlur stdDeviation="2.5" result="effect1_foregroundBlur"/>
</filter>
<filter id="filter5_f" x="1048.13" y="411.867" width="52.9183" height="52.9183" filterUnits="userSpaceOnUse" color-interpolation-filters="sRGB">
<feFlood flood-opacity="0" result="BackgroundImageFix"/>
<feBlend mode="normal" in="SourceGraphic" in2="BackgroundImageFix" result="shape"/>
<feGaussianBlur stdDeviation="1" result="effect1_foregroundBlur"/>
</filter>
<filter id="filter6_f" x="1126.68" y="459.208" width="93.1698" height="93.1698" filterUnits="userSpaceOnUse" color-interpolation-filters="sRGB">
<feFlood flood-opacity="0" result="BackgroundImageFix"/>
<feBlend mode="normal" in="SourceGraphic" in2="BackgroundImageFix" result="shape"/>
<feGaussianBlur stdDeviation="3" result="effect1_foregroundBlur"/>
</filter>
<filter id="filter7_f" x="34.8652" y="208.828" width="72.4434" height="72.4434" filterUnits="userSpaceOnUse" color-interpolation-filters="sRGB">
<feFlood flood-opacity="0" result="BackgroundImageFix"/>
<feBlend mode="normal" in="SourceGraphic" in2="BackgroundImageFix" result="shape"/>
<feGaussianBlur stdDeviation="3" result="effect1_foregroundBlur"/>
</filter>
<filter id="filter8_f" x="0.415039" y="-248.5" width="1247.77" height="1247.77" filterUnits="userSpaceOnUse" color-interpolation-filters="sRGB">
<feFlood flood-opacity="0" result="BackgroundImageFix"/>
<feBlend mode="normal" in="SourceGraphic" in2="BackgroundImageFix" result="shape"/>
<feGaussianBlur stdDeviation="2" result="effect1_foregroundBlur"/>
</filter>
<linearGradient id="paint0_linear" x1="586.394" y1="74.3548" x2="706.273" y2="209.168" gradientUnits="userSpaceOnUse">
<stop stop-color="white"/>
<stop offset="1" stop-color="white"/>
</linearGradient>
<linearGradient id="paint1_linear" x1="682.166" y1="56.8971" x2="747.229" y2="127.743" gradientUnits="userSpaceOnUse">
<stop stop-color="white"/>
<stop offset="1" stop-color="white"/>
</linearGradient>
<linearGradient id="paint2_linear" x1="1073.07" y1="210.93" x2="1236.34" y2="392.993" gradientUnits="userSpaceOnUse">
<stop stop-color="white"/>
<stop offset="1" stop-color="white"/>
</linearGradient>
<linearGradient id="paint3_linear" x1="1187.65" y1="3111.09" x2="2370.32" y2="3111.09" gradientUnits="userSpaceOnUse">
<stop stop-color="white"/>
<stop offset="0.27" stop-color="#FBFBFB"/>
<stop offset="0.54" stop-color="#EFF1F1"/>
<stop offset="0.82" stop-color="#DADFDF"/>
<stop offset="0.86" stop-color="#D6DCDC"/>
</linearGradient>
<linearGradient id="paint4_linear" x1="1225.01" y1="11052.8" x2="1521.3" y2="10861" gradientUnits="userSpaceOnUse">
<stop stop-color="#E4E8E8"/>
<stop offset="0.25" stop-color="#F1F3F3"/>
<stop offset="0.6" stop-color="#FCFCFC"/>
<stop offset="1" stop-color="white"/>
</linearGradient>
</defs>
</svg>

<svg width="1249" height="1000" fill="none" xmlns="http://www.w3.org/2000/svg"><g filter="url(#filter0_f)"><path d="M1066.49 138.453l27.04-2.866 2.86 27.037-27.03 2.865-2.87-27.036z" stroke="#fff" stroke-width="2"/></g><path d="M386.266 164.736l31.498-31.497 31.497 31.497-31.497 31.497-31.498-31.497z" stroke="#fff" stroke-width="2"/><g filter="url(#filter1_f)"><path d="M503.447 132.374l12.13-12.131 12.131 12.131-12.131 12.131-12.13-12.131z" stroke="#fff" stroke-width="2"/></g><g filter="url(#filter2_f)"><path d="M140.451 304.097h27.188v27.188h-27.188v-27.188z" stroke="#fff" stroke-width="2"/></g><g filter="url(#filter3_f)"><path d="M338.819 481.319h27.188v27.188h-27.188v-27.188z" stroke="#fff" stroke-width="2"/></g><g filter="url(#filter4_f)"><path d="M896.127 119.119l51.595-35.15 35.15 51.595-51.595 35.149-35.15-51.594z" stroke="#fff" stroke-width="2"/></g><g filter="url(#filter5_f)"><path d="M1051.55 438.326l23.04-23.045 23.05 23.045-23.05 23.045-23.04-23.045z" stroke="#fff" stroke-width="2"/></g><path d="M927.676 487.708l73.364 37.414-37.412 73.364-73.364-37.413 37.412-73.365z" stroke="#fff" stroke-width="2"/><path d="M339.978-54.27c197.911-197.907 518.781-197.907 716.692 0 197.9 197.906 197.9 518.777 0 716.683-197.911 197.906-518.781 197.906-716.692 0-197.905-197.906-197.905-518.777 0-716.684z" stroke="#fff"/><path opacity=".2" d="M637.379 146.007c17.518 0 31.719-13.75 31.719-30.712s-14.201-30.712-31.719-30.712-31.719 13.75-31.719 30.712 14.201 30.712 31.719 30.712z" fill="url(#paint0_linear)"/><path opacity=".2" d="M708.872 95.66c9.176 0 16.614-7.439 16.614-16.615 0-9.176-7.438-16.614-16.614-16.614-9.177 0-16.615 7.438-16.615 16.614 0 9.176 7.438 16.615 16.615 16.615z" fill="url(#paint1_linear)"/><path opacity=".2" d="M1141.86 308.424c23.63 0 42.79-18.709 42.79-41.788 0-23.079-19.16-41.788-42.79-41.788-23.64 0-42.8 18.709-42.8 41.788 0 23.079 19.16 41.788 42.8 41.788z" fill="url(#paint2_linear)"/><path d="M331.064 621.285l55.082 37.555-37.554 55.084-55.085-37.556 37.557-55.083z" fill="#FFDC4E" stroke="#fff" stroke-width="2"/><path d="M336.506 639.41l33.529 22.86-22.86 33.529-33.529-22.86 22.86-33.529z" fill="#FFDC4E" stroke="#fff" stroke-width="2"/><g filter="url(#filter6_f)"><path d="M1132.68 505.793l40.59-40.585 40.58 40.585-40.58 40.585-40.59-40.585z" fill="#FFDC4E"/><path d="M1134.11 505.793l39.16-39.161 39.16 39.161-39.16 39.161-39.16-39.161z" stroke="#fff" stroke-width="2"/></g><path fill-rule="evenodd" clip-rule="evenodd" d="M494.602 781.3c0 4.45-4.39 8.06-9.81 8.06-5.42 0-9.79-3.64-9.79-8.06s4.4-8.07 9.82-8.07 9.78 3.61 9.78 8.07z" fill="#fff"/><path d="M525.482 756.18h-34.68v3.5h34.68v-3.5z" fill="#fff"/><path d="M494.602 746h-4.41v35.9h4.41V746zM525.632 746h-4.41v35.9h4.41V746z" fill="#fff"/><path d="M525.642 746.02h-34.39v3.94h34.39v-3.94z" fill="url(#paint3_linear)"/><path fill-rule="evenodd" clip-rule="evenodd" d="M525.792 780.99c0 4.45-4.4 8.06-9.82 8.06s-9.81-3.61-9.81-8.06c0-4.45 4.39-8.06 9.81-8.06 5.42 0 9.82 3.61 9.82 8.06z" fill="url(#paint4_linear)"/><path d="M249.999 131.129c.057-4.63-1.751-8.844-4.961-11.559-4.205-3.558-10.554-4.446-16.629-2.85-1.312-4.934-2.67-9.885-4.006-14.735 1.086-1.181 2.141-2.3 3.159-3.38 7.236-7.674 12.464-13.219 11.253-22.955-1.045-8.398-4.614-11.285-7.425-12.228-2.703-.907-5.754-.336-8.368 1.567-5.939 4.325-10.399 16.022-6.153 31.484.394 1.437.794 2.89 1.198 4.356-2.497 2.796-5.185 6.007-7.896 9.757-8.226 11.377-7.901 19.745-6.181 24.762 1.742 5.079 5.72 9.232 10.914 11.393 5.154 2.144 10.272 2.996 15.062 2.591.848 4.884 1.409 9.343 1.562 13.14-1.574-.639-3.391-1.006-5.326-1.006-5.978 0-10.842 3.484-10.842 7.767S220.224 177 226.202 177c5.833 0 10.105-3.293 10.723-6.472 1.031-5.298.384-13.149-1.226-22.336a24.893 24.893 0 008.496-4.731 16.407 16.407 0 005.804-12.332zm-23.153-62.383c.526-.383 1.243-.789 1.917-.789.159 0 .316.023.467.073 1.321.444 3.098 2.841 3.757 8.14.96 7.713-3.168 12.09-10.006 19.343l-.278.295-.125-.456c-3.917-14.266.539-23.89 4.268-26.606zm-9.356 73.545c-3.663-1.524-6.606-4.636-7.871-8.325-1.996-5.819-.076-13.009 5.552-20.793a109.384 109.384 0 014.648-5.976c1.049 3.829 2.115 7.751 3.153 11.685a23.472 23.472 0 00-3.919 2.682c-1.145.968-1.145 2.538 0 3.506 1.144.968 2.999.968 4.144 0 .373-.316.759-.615 1.153-.897 1.791 6.994 3.44 13.912 4.708 20.292-3.599.246-7.488-.476-11.568-2.174zm8.713 29.751c-2.654 0-4.982-1.313-4.982-2.809 0-1.497 2.328-2.809 4.982-2.809 2.653 0 4.981 1.312 4.981 2.809s-2.328 2.809-4.981 2.809zm13.849-32.086c-1.645 1.391-3.416 2.465-5.296 3.22-1.36-6.788-3.135-14.134-5.075-21.614 4.185-1.244 8.477-.802 11.213 1.513 4.212 3.563 4.66 12.226-.842 16.881z" fill="#fff" fill-opacity=".6"/><g filter="url(#filter7_f)"><path d="M41.865 215.828h58.444v58.444H41.865v-58.444z" stroke="#fff" stroke-width="2"/></g><g filter="url(#filter8_f)"><path d="M186.327-62.586c241.888-241.885 634.062-241.885 875.943 0 241.89 241.885 241.89 634.059 0 875.943-241.881 241.883-634.055 241.883-875.943 0-241.883-241.884-241.883-634.058 0-875.943z" stroke="#fff"/></g><path d="M1100.61 787.866c-1.66-3.894-6.72-6.347-10.31-7.19-3.94-.918-8.05-.695-11.9-2.332-3.08-1.31-5.22-4.193-6.85-7.753l-1.8-.216 1.28 46.792a8.806 8.806 0 00-4.13-2.666c-6.98-2.493-13.07-1.272-15.65 1.351-4.96 4.999-.53 12.74 5.4 14.749 6.29 2.133 15.38 1.507 16.23-5.674.04-.391.07-.755.09-1.143l-.75-26.742c1.16.587 2.43.913 3.73.953 2.13.348 4.31.335 6.43-.039 1.89-.407 3.73-.986 5.51-1.732a8.281 8.281 0 014.67-.596c1.58.258 3.05.968 4.23 2.046a3.854 3.854 0 011.64 2.103c.34 1.147.46 2.367-.1 2.913 2.04-1.243.47-4.86-.89-6.182a12.728 12.728 0 00-7.76-3.43 43.46 43.46 0 00-6.33.151c-1.55.233-3.13.321-4.7.262-1.56.05-3.1-.399-4.39-1.28a10.635 10.635 0 01-2.18-2.293l-.14-5.192a5.965 5.965 0 002.53 2.84 8.17 8.17 0 005.06.472c2.95-.245 5.88-.663 8.78-1.253 2.78-.463 8.75-.514 10.55 3.178.9 1.87-.31 3.172-.71 4.648a5.076 5.076 0 001.62-1.158 5.13 5.13 0 001.04-1.696c.23-.629.33-1.297.29-1.965a4.963 4.963 0 00-.49-1.926z" fill="#fff" fill-opacity=".6"/><path d="M55.214 674.001c-6.691-.465-12.285 1.865-14.462 4.58-4.17 5.128.605 10.453 6.292 10.792 5.688.34 14.482-2.185 14.587-8.216.023-.309.018-.62-.015-.928l-5.137-37.043a67.186 67.186 0 0011.753-2.145c7.136-1.164 14.103-1.288 21.208-2.058l4.184 29.536a7.148 7.148 0 00-4.056-1.251c-6.691-.465-12.262 1.875-14.462 4.58-4.161 5.105.605 10.452 6.293 10.792 5.687.339 14.481-2.186 14.619-8.229l-.038-.938-4.807-34.87c.792-2.917.906-5.977.332-8.945a80.174 80.174 0 00-15.274 1.363c-2.072.346-23.004 3.551-23.004 3.551a72.084 72.084 0 001.102 8.248c.164.082.333.153.506.214l4.488 32.349a7.342 7.342 0 00-4.109-1.382z" fill="#fff" fill-opacity=".7"/><defs><filter id="filter0_f" x="1057.39" y="126.487" width="48.102" height="48.102" filterUnits="userSpaceOnUse" color-interpolation-filters="sRGB"><feFlood flood-opacity="0" result="BackgroundImageFix"/><feBlend in="SourceGraphic" in2="BackgroundImageFix" result="shape"/><feGaussianBlur stdDeviation="4" result="effect1_foregroundBlur"/></filter><filter id="filter1_f" x="498.032" y="114.829" width="35.09" height="35.09" filterUnits="userSpaceOnUse" color-interpolation-filters="sRGB"><feFlood flood-opacity="0" result="BackgroundImageFix"/><feBlend in="SourceGraphic" in2="BackgroundImageFix" result="shape"/><feGaussianBlur stdDeviation="2" result="effect1_foregroundBlur"/></filter><filter id="filter2_f" x="137.451" y="301.097" width="33.188" height="33.188" filterUnits="userSpaceOnUse" color-interpolation-filters="sRGB"><feFlood flood-opacity="0" result="BackgroundImageFix"/><feBlend in="SourceGraphic" in2="BackgroundImageFix" result="shape"/><feGaussianBlur stdDeviation="1" result="effect1_foregroundBlur"/></filter><filter id="filter3_f" x="331.819" y="474.319" width="41.188" height="41.188" filterUnits="userSpaceOnUse" color-interpolation-filters="sRGB"><feFlood flood-opacity="0" result="BackgroundImageFix"/><feBlend in="SourceGraphic" in2="BackgroundImageFix" result="shape"/><feGaussianBlur stdDeviation="3" result="effect1_foregroundBlur"/></filter><filter id="filter4_f" x="889.737" y="77.579" width="99.524" height="99.524" filterUnits="userSpaceOnUse" color-interpolation-filters="sRGB"><feFlood flood-opacity="0" result="BackgroundImageFix"/><feBlend in="SourceGraphic" in2="BackgroundImageFix" result="shape"/><feGaussianBlur stdDeviation="2.5" result="effect1_foregroundBlur"/></filter><filter id="filter5_f" x="1048.13" y="411.867" width="52.918" height="52.918" filterUnits="userSpaceOnUse" color-interpolation-filters="sRGB"><feFlood flood-opacity="0" result="BackgroundImageFix"/><feBlend in="SourceGraphic" in2="BackgroundImageFix" result="shape"/><feGaussianBlur stdDeviation="1" result="effect1_foregroundBlur"/></filter><filter id="filter6_f" x="1126.68" y="459.208" width="93.17" height="93.17" filterUnits="userSpaceOnUse" color-interpolation-filters="sRGB"><feFlood flood-opacity="0" result="BackgroundImageFix"/><feBlend in="SourceGraphic" in2="BackgroundImageFix" result="shape"/><feGaussianBlur stdDeviation="3" result="effect1_foregroundBlur"/></filter><filter id="filter7_f" x="34.865" y="208.828" width="72.443" height="72.443" filterUnits="userSpaceOnUse" color-interpolation-filters="sRGB"><feFlood flood-opacity="0" result="BackgroundImageFix"/><feBlend in="SourceGraphic" in2="BackgroundImageFix" result="shape"/><feGaussianBlur stdDeviation="3" result="effect1_foregroundBlur"/></filter><filter id="filter8_f" x=".415" y="-248.5" width="1247.77" height="1247.77" filterUnits="userSpaceOnUse" color-interpolation-filters="sRGB"><feFlood flood-opacity="0" result="BackgroundImageFix"/><feBlend in="SourceGraphic" in2="BackgroundImageFix" result="shape"/><feGaussianBlur stdDeviation="2" result="effect1_foregroundBlur"/></filter><linearGradient id="paint0_linear" x1="586.394" y1="74.355" x2="706.273" y2="209.168" gradientUnits="userSpaceOnUse"><stop stop-color="#fff"/><stop offset="1" stop-color="#fff"/></linearGradient><linearGradient id="paint1_linear" x1="682.166" y1="56.897" x2="747.229" y2="127.743" gradientUnits="userSpaceOnUse"><stop stop-color="#fff"/><stop offset="1" stop-color="#fff"/></linearGradient><linearGradient id="paint2_linear" x1="1073.07" y1="210.93" x2="1236.34" y2="392.993" gradientUnits="userSpaceOnUse"><stop stop-color="#fff"/><stop offset="1" stop-color="#fff"/></linearGradient><linearGradient id="paint3_linear" x1="1187.65" y1="3111.09" x2="2370.32" y2="3111.09" gradientUnits="userSpaceOnUse"><stop stop-color="#fff"/><stop offset=".27" stop-color="#FBFBFB"/><stop offset=".54" stop-color="#EFF1F1"/><stop offset=".82" stop-color="#DADFDF"/><stop offset=".86" stop-color="#D6DCDC"/></linearGradient><linearGradient id="paint4_linear" x1="1225.01" y1="11052.8" x2="1521.3" y2="10861" gradientUnits="userSpaceOnUse"><stop stop-color="#E4E8E8"/><stop offset=".25" stop-color="#F1F3F3"/><stop offset=".6" stop-color="#FCFCFC"/><stop offset="1" stop-color="#fff"/></linearGradient></defs></svg>
